packages/ffe-icons/icons/open/400/sm/add.svg

<svg xmlns="http://www.w3.org/2000/svg" height="20" viewBox="0 -960 960 960" width="20"><path d="M444-444H276q-15.3 0-25.65-10.289-10.35-10.29-10.35-25.5Q240-495 250.35-505.5 260.7-516 276-516h168v-168q0-15.3 10.289-25.65 10.29-10.35 25.5-10.35Q495-720 505.5-709.65 516-699.3 516-684v168h168q15.3 0 25.65 10.289 10.35 10.29 10.35 25.5Q720-465 709.65-454.5 699.3-444 684-444H516v168q0 15.3-10.289 25.65-10.29 10.35-25.5 10.35Q465-240 454.5-250.35 444-260.7 444-276v-168Z"/></svg>

<svg xmlns="http://www.w3.org/2000/svg" height="20" viewBox="0 -960 960 960" width="20"><path d="M444-444H276q-15.3 0-25.65-10.29Q240-464.58 240-479.79t10.35-25.71Q260.7-516 276-516h168v-168q0-15.3 10.29-25.65Q464.58-720 479.79-720t25.71 10.35Q516-699.3 516-684v168h168q15.3 0 25.65 10.29Q720-495.42 720-480.21t-10.35 25.71Q699.3-444 684-444H516v168q0 15.3-10.29 25.65Q495.42-240 480.21-240t-25.71-10.35Q444-260.7 444-276v-168Z"/></svg>
